X: 10351
T: OFF SHE GOES
%R: jig
B: "Edinburgh Repository of Music" v.1 p.35 #1
F: http://digital.nls.uk/special-collections-of-printed-music/pageturner.cfm?id=87776133
Z: 2015 John Chambers <jc:trillian.mit.edu>
N: The rhythm between the strains isn't right; not fixed.
M: 6/8
L: 1/8
K: D
|:\
F2A G2B | ABc d3 | F2A G2B | AFD E3 |\
F2A G2B | ABc d2e | f2d g2f | edc d3 :|
|: g |\
(f/g/a).f d2f | (e/f/g).e c2e | (f/g/a).f d2f | edc d2g |\
(f/g/a).f d2f | (e/f/g).e c2e | d2f a2f | gec d2 :|

%%sep 2 1 500
%%sep 1 1 500

